X:13
T:Garret's Wedding
R:slip jig
M:9/8
L:1/8
S:Paddy Moloney, The Chieftains
K:G
EDE e2B G2B | A3 A2G A2B | EDE G2B e2f |1 gfe fed B3 :|2
gfe fed e2f |: g2B BAB g2e | f2A AFA f2d |1 g2B BAB g2e |
fed afd gfe :|2 g2e fed efg | BcB AGF E3 |]
